src/icons/flags/mk.svg

<svg viewBox="0 0 640 480" xmlns="http://www.w3.org/2000/svg"><path d="m0 0h640v480h-640z" fill="#d20000"/><g fill="#ffe600"><path d="m0 0h96l224 231.4 224-231.4h96l-640 480h96l224-231.4 224 231.4h96zm640 192v96l-640-96v96zm-360-192 40 205.7 40-205.7zm0 480 40-205.7 40 205.7z"/><circle cx="320" cy="240" r="77.1" stroke="#d20000" stroke-width="17.1"/></g></svg>

<svg xmlns="http://www.w3.org/2000/svg" id="flag-icon-css-mk" viewBox="0 0 640 480">
  <path fill="#d20000" d="M0 0h640v480H0z"/>
  <path fill="#ffe600" d="M0 0h96l224 231.4L544 0h96L0 480h96l224-231.4L544 480h96zm640 192v96L0 192v96zM280 0l40 205.7L360 0zm0 480l40-205.7L360 480z"/>
  <circle cx="320" cy="240" r="77.1" fill="#ffe600" stroke="#d20000" stroke-width="17.1"/>
</svg>
